X:1
T:Mazurka efter A. A. Anderberg
R:Mazurka
S:Anderberg
O:Torna Hällestad, Skåne
M:3/4
L:1/8
K:G
dBG2G2 | FAA2A2 | cAF2F2 | GBB2B2 | dBG2G2 | FAA2A2 | cBAcAd | G2G2z2 ::
GBd2BG | GBd2BG | FAc2AF | FAc2AF | GBd2BG | GBd2BG | FAcAdF | G2G2z2 :|

